assets/clipboard.svg

<svg xmlns="http://www.w3.org/2000/svg" fill="none" viewBox="0 0 25 28">
  <path fill="#2A2238" d="M5.25 2.625H3.5c-.92826 0-1.8185.36875-2.47487 1.02513C.368749 4.3065 0 5.19674 0 6.125V24.5c0 .9283.368749 1.8185 1.02513 2.4749C1.6815 27.6313 2.57174 28 3.5 28H21c.9283 0 1.8185-.3687 2.4749-1.0251.6564-.6564 1.0251-1.5466 1.0251-2.4749V6.125c0-.92826-.3687-1.8185-1.0251-2.47487C22.8185 2.99375 21.9283 2.625 21 2.625h-1.75v1.75H21c.4641 0 .9092.18437 1.2374.51256.3282.32819.5126.77331.5126 1.23744V24.5c0 .4641-.1844.9092-.5126 1.2374-.3282.3282-.7733.5126-1.2374.5126H3.5c-.46413 0-.90925-.1844-1.23744-.5126C1.93437 25.4092 1.75 24.9641 1.75 24.5V6.125c0-.46413.18437-.90925.51256-1.23744C2.59075 4.55937 3.03587 4.375 3.5 4.375h1.75v-1.75Z"/>
  <path fill="#2A2238" d="M14.875 1.75c.2321 0 .4546.09219.6187.25628.1641.1641.2563.38666.2563.61872v1.75c0 .23206-.0922.45462-.2563.61872-.1641.16409-.3866.25628-.6187.25628h-5.25c-.23206 0-.45462-.09219-.61872-.25628C8.84219 4.82962 8.75 4.60706 8.75 4.375v-1.75c0-.23206.09219-.45462.25628-.61872.1641-.16409.38666-.25628.61872-.25628h5.25ZM9.625 0c-.69619 0-1.36387.276562-1.85616.768845C7.27656 1.26113 7 1.92881 7 2.625v1.75c0 .69619.27656 1.36387.76884 1.85616C8.26113 6.72344 8.92881 7 9.625 7h5.25c.6962 0 1.3639-.27656 1.8562-.76884.4922-.49229.7688-1.15997.7688-1.85616v-1.75c0-.69619-.2766-1.36387-.7688-1.856155C16.2389.276562 15.5712 0 14.875 0h-5.25Z"/>
</svg>

<svg width="25" height="28" viewBox="0 0 25 28" fill="none" xmlns="http://www.w3.org/2000/svg">
<path d="M5.25 2.625H3.5C2.57174 2.625 1.6815 2.99375 1.02513 3.65013C0.368749 4.3065 0 5.19674 0 6.125V24.5C0 25.4283 0.368749 26.3185 1.02513 26.9749C1.6815 27.6313 2.57174 28 3.5 28H21C21.9283 28 22.8185 27.6313 23.4749 26.9749C24.1313 26.3185 24.5 25.4283 24.5 24.5V6.125C24.5 5.19674 24.1313 4.3065 23.4749 3.65013C22.8185 2.99375 21.9283 2.625 21 2.625H19.25V4.375H21C21.4641 4.375 21.9092 4.55937 22.2374 4.88756C22.5656 5.21575 22.75 5.66087 22.75 6.125V24.5C22.75 24.9641 22.5656 25.4092 22.2374 25.7374C21.9092 26.0656 21.4641 26.25 21 26.25H3.5C3.03587 26.25 2.59075 26.0656 2.26256 25.7374C1.93437 25.4092 1.75 24.9641 1.75 24.5V6.125C1.75 5.66087 1.93437 5.21575 2.26256 4.88756C2.59075 4.55937 3.03587 4.375 3.5 4.375H5.25V2.625Z" fill="#2A2238"/>
<path d="M14.875 1.75C15.1071 1.75 15.3296 1.84219 15.4937 2.00628C15.6578 2.17038 15.75 2.39294 15.75 2.625V4.375C15.75 4.60706 15.6578 4.82962 15.4937 4.99372C15.3296 5.15781 15.1071 5.25 14.875 5.25H9.625C9.39294 5.25 9.17038 5.15781 9.00628 4.99372C8.84219 4.82962 8.75 4.60706 8.75 4.375V2.625C8.75 2.39294 8.84219 2.17038 9.00628 2.00628C9.17038 1.84219 9.39294 1.75 9.625 1.75H14.875ZM9.625 0C8.92881 0 8.26113 0.276562 7.76884 0.768845C7.27656 1.26113 7 1.92881 7 2.625V4.375C7 5.07119 7.27656 5.73887 7.76884 6.23116C8.26113 6.72344 8.92881 7 9.625 7H14.875C15.5712 7 16.2389 6.72344 16.7312 6.23116C17.2234 5.73887 17.5 5.07119 17.5 4.375V2.625C17.5 1.92881 17.2234 1.26113 16.7312 0.768845C16.2389 0.276562 15.5712 0 14.875 0L9.625 0Z" fill="#2A2238"/>
</svg>
